img/bankonbet.svg

<svg width="144" height="17" viewBox="0 0 144 17" fill="none" xmlns="http://www.w3.org/2000/svg">
<path fill-rule="evenodd" clip-rule="evenodd" d="M81.7637 8.48802C81.7637 13.1753 78.037 17 73.2738 17C68.5036 17 64.7364 13.1936 64.7364 8.48802C64.7364 3.79131 68.5204 0 73.2738 0C78.0276 0 81.7637 3.80243 81.7637 8.48802ZM68.8748 8.48802C68.8748 11.1357 70.4947 13.3115 73.2738 13.3115C76.0068 13.3115 77.649 11.0856 77.649 8.48802C77.649 5.88873 76.0108 3.6648 73.2738 3.6648C70.4907 3.6648 68.8748 5.83857 68.8748 8.48802Z" fill="#000880"/>
<path fill-rule="evenodd" clip-rule="evenodd" d="M13.2438 12.3184C13.2438 10.4382 11.9852 8.86188 10.1731 8.38621V8.22806C11.8493 7.70568 12.7102 6.28509 12.7102 4.53954C12.7102 1.54341 9.98109 0.236478 7.3182 0.236478H0V3.47428L6.53767 3.47576C7.88024 3.47576 8.59552 4.10563 8.59552 5.22526C8.59552 6.33302 7.89606 6.95128 6.53767 6.95128H0V16.8344H7.73311C10.529 16.8344 13.2438 15.4227 13.2438 12.3184ZM6.97631 9.90689C8.10879 9.90689 9.1523 10.516 9.1523 11.7747C9.1523 13.014 8.15921 13.5717 7.02376 13.5717H4.04401V9.90689H6.97631Z" fill="#000880"/>
<path fill-rule="evenodd" clip-rule="evenodd" d="M18.6284 16.8344L19.622 13.9026H25.8177L26.8113 16.8344H31.0916L25.0847 0.236478H20.4025L14.3955 16.8344H18.6284ZM22.7979 4.9354L24.7772 10.7816H20.6862L22.6427 4.9354H22.7979Z" fill="#000880"/>
<path d="M47.7714 16.8344H43.7274L37.1361 6.85787L36.9636 6.89642V16.8344H32.9196V0.236478H36.9636L43.5979 10.3247L43.7274 10.2958V0.236478H47.7714V16.8344Z" fill="#000880"/>
<path d="M54.8579 9.65064L60.328 16.8344H65.2707L58.6019 8.3699L65.0344 0.236478H60.2806L54.8475 7.38569H54.7467V0.236478H50.7027V16.8344H54.7467V9.65064H54.8579Z" fill="#000880"/>
<path d="M94.8211 16.8344H98.8651V0.236478H94.8211V10.5214L88.0573 0.236478H84.0133V16.8344H88.0573V6.59668L94.8211 16.8344Z" fill="#000880"/>
<path d="M117.386 16.8344V6.83316H128.306V9.95408H121.43V13.5952H128.306V16.8344H117.386Z" fill="#F61221"/>
<path d="M117.386 3.47576V0.236478H128.306V3.47576H117.386Z" fill="#F61221"/>
<path d="M144 0.236478V3.47576H139.035V16.8344H134.991V3.47576H130.032V0.236478H144Z" fill="#F61221"/>
<path fill-rule="evenodd" clip-rule="evenodd" d="M115.05 12.3391C115.05 10.4589 113.792 8.88264 111.979 8.40697V8.24882C113.656 7.72644 114.671 6.30584 114.671 4.5603C114.671 1.56417 111.942 0.257235 109.279 0.257235H101.806V16.8552H109.539C112.335 16.8552 115.05 15.4435 115.05 12.3391ZM105.85 6.97203H108.499C109.857 6.97203 110.557 6.35378 110.557 5.24601C110.557 4.12639 109.841 3.49652 108.499 3.49652L105.85 3.49602V6.97203ZM108.783 9.92764C109.915 9.92764 110.959 10.5368 110.959 11.7955C110.959 13.0347 109.965 13.5924 108.83 13.5924H105.85V9.92764H108.783Z" fill="#F61221"/>
</svg>

<svg width="144" height="17" fill="none" xmlns="http://www.w3.org/2000/svg"><path fill-rule="evenodd" clip-rule="evenodd" d="M81.764 8.488c0 4.687-3.727 8.512-8.49 8.512a8.487 8.487 0 0 1-8.538-8.512C64.736 3.791 68.52 0 73.274 0a8.45 8.45 0 0 1 8.49 8.488Zm-12.89 0c0 2.648 1.62 4.824 4.4 4.824 2.733 0 4.375-2.226 4.375-4.824 0-2.6-1.638-4.823-4.375-4.823-2.783 0-4.4 2.174-4.4 4.823ZM13.244 12.318c0-1.88-1.259-3.456-3.07-3.932v-.158c1.675-.522 2.536-1.943 2.536-3.688 0-2.997-2.729-4.304-5.392-4.304H0v3.238l6.538.002c1.342 0 2.058.63 2.058 1.75 0 1.107-.7 1.725-2.058 1.725H0v9.883h7.733c2.796 0 5.51-1.411 5.51-4.516ZM6.976 9.907c1.133 0 2.176.609 2.176 1.868 0 1.239-.993 1.797-2.128 1.797h-2.98V9.907h2.932ZM18.628 16.834l.994-2.931h6.196l.993 2.931h4.28L25.086.236h-4.683l-6.007 16.598h4.233Zm4.17-11.899 1.98 5.847h-4.092l1.957-5.847h.155Z" fill="#000880"/><path d="M47.771 16.834h-4.044l-6.59-9.976-.173.038v9.938H32.92V.236h4.044l6.634 10.089.13-.03V.237h4.043v16.598ZM54.858 9.65l5.47 7.184h4.943L58.6 8.37 65.035.236h-4.753l-5.434 7.15h-.1V.236h-4.044v16.598h4.044V9.651h.11ZM94.821 16.834h4.044V.236h-4.044v10.285L88.057.236h-4.044v16.598h4.044V6.597l6.764 10.237Z" fill="#000880"/><path d="M117.386 16.834v-10h10.92v3.12h-6.876v3.641h6.876v3.24h-10.92ZM117.386 3.476V.236h10.92v3.24h-10.92ZM144 .236v3.24h-4.965v13.358h-4.044V3.476h-4.959V.236H144Z" fill="#F61221"/><path fill-rule="evenodd" clip-rule="evenodd" d="M115.05 12.34c0-1.881-1.258-3.457-3.071-3.933v-.158c1.677-.523 2.692-1.943 2.692-3.689 0-2.996-2.729-4.303-5.392-4.303h-7.473v16.598h7.733c2.796 0 5.511-1.412 5.511-4.516Zm-9.2-5.368h2.649c1.358 0 2.058-.618 2.058-1.726 0-1.12-.716-1.75-2.058-1.75h-2.649v3.476Zm2.933 2.956c1.132 0 2.176.609 2.176 1.867 0 1.24-.994 1.797-2.129 1.797h-2.98V9.928h2.933Z" fill="#F61221"/></svg>
